public/icons/bitcoin.svg

<svg width="106" height="23" viewBox="0 0 106 23" fill="none" xmlns="http://www.w3.org/2000/svg">
<path d="M21.7996 13.7438C20.3215 19.6724 14.3169 23.2805 8.38759 21.802C2.46075 20.324 -1.14731 14.319 0.331465 8.39074C1.80885 2.46148 7.81351 -1.14691 13.741 0.331166C19.67 1.80924 23.2777 7.81493 21.7996 13.7438Z" fill="#F7931A"/>
<path d="M15.9463 9.48866C16.1666 8.01612 15.0454 7.22451 13.5124 6.69643L14.0097 4.70168L12.7954 4.39907L12.3113 6.34126C11.9921 6.26171 11.6642 6.18667 11.3385 6.11232L11.8261 4.15734L10.6126 3.85474L10.1149 5.84879C9.8507 5.78862 9.59132 5.72914 9.33956 5.66654L9.34094 5.66032L7.66644 5.2422L7.34343 6.53907C7.34343 6.53907 8.24432 6.74553 8.2253 6.75832C8.71707 6.88109 8.80594 7.20652 8.79107 7.46451L8.2246 9.73696C8.25849 9.74561 8.30242 9.75806 8.35084 9.77742C8.31037 9.7674 8.26714 9.75633 8.22253 9.7456L7.4285 12.929C7.36832 13.0784 7.21582 13.3025 6.87207 13.2174C6.88417 13.235 5.98951 12.9971 5.98951 12.9971L5.38672 14.387L6.96682 14.7809C7.26077 14.8546 7.54885 14.9317 7.83243 15.0043L7.32995 17.0219L8.54277 17.3245L9.04042 15.3283C9.37172 15.4183 9.69335 15.5013 10.0081 15.5794L9.51214 17.5662L10.7263 17.8688L11.2288 15.855C13.2993 16.2469 14.8563 16.0888 15.5116 14.2162C16.0397 12.7083 15.4853 11.8386 14.3959 11.2714C15.1893 11.0885 15.7869 10.5666 15.9463 9.48866ZM13.1721 13.3789C12.7968 14.8867 10.2581 14.0716 9.43501 13.8672L10.1018 11.1943C10.9248 11.3997 13.5642 11.8064 13.1721 13.3789ZM13.5476 9.46687C13.2053 10.8384 11.0922 10.1416 10.4068 9.97074L11.0113 7.54648C11.6967 7.71732 13.9042 8.03617 13.5476 9.46687Z" fill="white"/>
<path d="M32.4311 6.6947C33.3285 6.6947 34.1039 6.85551 34.7554 7.17125C35.4101 7.4901 35.9502 7.91963 36.3836 8.45982C36.811 9.00277 37.1292 9.63737 37.3346 10.3646C37.5386 11.094 37.641 11.878 37.641 12.7173C37.641 14.0066 37.4048 15.2246 36.9279 16.3728C36.451 17.5226 35.804 18.52 34.9809 19.3708C34.1585 20.2205 33.1874 20.8903 32.0676 21.3852C30.9495 21.8804 29.7339 22.1281 28.4288 22.1281C28.26 22.1281 27.9633 22.1232 27.5441 22.1146C27.125 22.1059 26.6433 22.0627 26.1038 21.9897C25.5608 21.914 24.9867 21.8019 24.3805 21.6519C23.7746 21.5045 23.1991 21.2981 22.6572 21.0359L27.503 0.674839L31.8432 0.00219727L30.1081 7.22763C30.4796 7.06025 30.8537 6.93055 31.2272 6.83614C31.6011 6.74311 32.0022 6.6947 32.4311 6.6947ZM28.7905 18.685C29.4441 18.685 30.0601 18.5242 30.6386 18.2084C31.2189 17.8923 31.7197 17.4656 32.1392 16.934C32.5587 16.4001 32.8907 15.7987 33.1328 15.1267C33.3748 14.4548 33.4973 13.7538 33.4973 13.0244C33.4973 12.1284 33.3475 11.4295 33.0491 10.9242C32.7506 10.421 32.1983 10.1679 31.3964 10.1679C31.1335 10.1679 30.795 10.218 30.3751 10.3076C29.9539 10.4027 29.5769 10.6002 29.2391 10.8972L27.3916 18.5705C27.503 18.5902 27.6016 18.6089 27.6856 18.6265C27.7679 18.6456 27.8589 18.659 27.9495 18.6684C28.0453 18.6791 28.1549 18.6846 28.2873 18.6846C28.4198 18.6846 28.5854 18.685 28.7905 18.685Z" fill="#4D4D4D"/>
<path d="M42.1425 21.7381H37.9971L41.4979 7.00675H45.6717L42.1425 21.7381ZM44.1598 5.21189C43.5812 5.21189 43.0566 5.03967 42.5911 4.69453C42.1218 4.35147 41.8894 3.82339 41.8894 3.11167C41.8894 2.72019 41.9689 2.35291 42.1266 2.00639C42.2868 1.66056 42.496 1.3628 42.7581 1.10966C43.0199 0.858583 43.3232 0.657998 43.6676 0.50687C44.0142 0.358163 44.3828 0.283813 44.7757 0.283813C45.3539 0.283813 45.8758 0.456038 46.343 0.801176C46.8085 1.14804 47.0426 1.67612 47.0426 2.38404C47.0426 2.7769 46.9634 3.14556 46.8043 3.49139C46.6463 3.83722 46.4371 4.13497 46.1749 4.38812C45.9152 4.63954 45.6091 4.83943 45.2654 4.98917C44.9185 5.1403 44.5512 5.21189 44.1598 5.21189Z" fill="#4D4D4D"/>
<path d="M49.3053 3.33658L53.6472 2.66394L52.581 7.00618H57.231L56.3913 10.4223H51.7693L50.5381 15.5752C50.4247 16.0047 50.3604 16.4058 50.3424 16.7786C50.322 17.1532 50.3694 17.4748 50.4814 17.7456C50.5928 18.0171 50.793 18.2263 51.0835 18.3743C51.3726 18.5247 51.7866 18.6005 52.3296 18.6005C52.7767 18.6005 53.2125 18.5579 53.6337 18.4736C54.0525 18.3906 54.4768 18.2751 54.9063 18.1239L55.2155 21.318C54.6553 21.5234 54.0487 21.7001 53.3951 21.8489C52.7404 21.9996 51.9654 22.0723 51.0697 22.0723C49.7818 22.0723 48.7834 21.881 48.072 21.5003C47.3617 21.1167 46.8596 20.5928 46.559 19.9295C46.2626 19.2686 46.1302 18.5068 46.1672 17.6484C46.2056 16.788 46.3353 15.8836 46.559 14.9312L49.3053 3.33658Z" fill="#4D4D4D"/>
<path d="M57.0479 15.8556C57.0479 14.5867 57.2533 13.3902 57.6638 12.27C58.0736 11.1488 58.6639 10.1684 59.4299 9.32701C60.1932 8.48975 61.1231 7.82645 62.2177 7.33952C63.307 6.85536 64.5268 6.61121 65.871 6.61121C66.7124 6.61121 67.4639 6.69075 68.1251 6.85018C68.7891 7.01099 69.3898 7.21884 69.9331 7.47959L68.5035 10.7304C68.13 10.5789 67.7423 10.4454 67.3415 10.3244C66.9403 10.2009 66.4506 10.1414 65.8714 10.1414C64.4877 10.1414 63.3938 10.6183 62.5798 11.569C61.7688 12.5204 61.3604 13.801 61.3604 15.4074C61.3604 16.3595 61.5658 17.1293 61.978 17.7182C62.3882 18.3072 63.1459 18.6001 64.246 18.6001C64.7889 18.6001 65.3128 18.5434 65.8146 18.4327C66.3203 18.3207 66.7667 18.1796 67.1599 18.0129L67.4694 21.3453C66.9452 21.5486 66.3669 21.7323 65.7327 21.8931C65.0971 22.0484 64.3404 22.129 63.463 22.129C62.3048 22.129 61.3244 21.9595 60.5224 21.6258C59.7201 21.2869 59.0571 20.8369 58.5349 20.267C58.0099 19.6957 57.633 19.0286 57.3999 18.2629C57.1668 17.4979 57.0479 16.6942 57.0479 15.8556Z" fill="#4D4D4D"/>
<path d="M75.4631 22.129C74.4737 22.129 73.6143 21.9782 72.8853 21.6797C72.1583 21.3813 71.5562 20.9625 71.08 20.4195C70.6031 19.8793 70.2462 19.2392 70.0017 18.5015C69.7572 17.7642 69.6396 16.9477 69.6396 16.0531C69.6396 14.9308 69.8198 13.809 70.184 12.6902C70.5464 11.569 71.0842 10.5616 71.7959 9.66627C72.5021 8.76954 73.3732 8.03637 74.399 7.46471C75.4237 6.89686 76.6022 6.61121 77.9261 6.61121C78.8975 6.61121 79.7524 6.76233 80.4914 7.06078C81.227 7.35854 81.8329 7.7808 82.3119 8.32099C82.7857 8.86394 83.1457 9.50131 83.3878 10.24C83.6316 10.9759 83.7519 11.7945 83.7519 12.6899C83.7519 13.8086 83.5742 14.9305 83.2214 16.0527C82.8684 17.1694 82.3444 18.1792 81.6528 19.0767C80.9625 19.972 80.0993 20.7048 79.0625 21.2741C78.0271 21.8433 76.8263 22.129 75.4631 22.129ZM77.535 10.1418C76.9204 10.1418 76.3771 10.3202 75.912 10.6726C75.4451 11.0292 75.0529 11.4774 74.7368 12.0179C74.4173 12.5609 74.1804 13.1529 74.0203 13.7965C73.8615 14.4415 73.7837 15.0512 73.7837 15.6305C73.7837 16.5652 73.9345 17.2932 74.2309 17.8171C74.5314 18.3383 75.0713 18.6004 75.8559 18.6004C76.4726 18.6004 77.0131 18.4234 77.481 18.0672C77.9451 17.7134 78.3376 17.2648 78.6561 16.7233C78.9736 16.1831 79.2126 15.5893 79.3727 14.9447C79.5293 14.3018 79.6092 13.6886 79.6092 13.1104C79.6092 12.178 79.4591 11.4483 79.16 10.9251C78.8612 10.4039 78.319 10.1418 77.535 10.1418Z" fill="#4D4D4D"/>
<path d="M88.2681 21.7381H84.1191L87.62 7.00675H91.7959L88.2681 21.7381ZM90.2822 5.21189C89.7039 5.21189 89.1797 5.03967 88.7149 4.69453C88.248 4.35147 88.0135 3.82339 88.0135 3.11167C88.0135 2.72019 88.0941 2.35291 88.2522 2.00639C88.4102 1.66056 88.6208 1.3628 88.8829 1.10966C89.1433 0.858583 89.4494 0.657998 89.7932 0.50687C90.1376 0.358163 90.5063 0.283813 90.8977 0.283813C91.4774 0.283813 92.0009 0.456038 92.4671 0.801176C92.9336 1.14804 93.1692 1.67612 93.1692 2.38404C93.1692 2.7769 93.0855 3.14556 92.9288 3.49139C92.7722 3.83722 92.5615 4.13497 92.3004 4.38812C92.0376 4.63954 91.7353 4.83943 91.3909 4.98917C91.0437 5.1403 90.6757 5.21189 90.2822 5.21189Z" fill="#4D4D4D"/>
<path d="M94.7844 7.67659C95.0991 7.5846 95.4505 7.47394 95.8326 7.35359C96.2162 7.23324 96.6446 7.1212 97.1233 7.02022C97.5967 6.91612 98.131 6.83174 98.7186 6.76637C99.3062 6.69963 99.9757 6.66711 100.72 6.66711C102.906 6.66711 104.413 7.3038 105.245 8.57334C106.076 9.84288 106.22 11.5803 105.681 13.7826L103.774 21.7367H99.6011L101.449 13.95C101.562 13.4637 101.651 12.9937 101.716 12.5345C101.782 12.0794 101.778 11.6782 101.701 11.331C101.627 10.9879 101.454 10.7071 101.184 10.4896C100.911 10.2755 100.498 10.168 99.9369 10.168C99.3964 10.168 98.8465 10.2261 98.2853 10.3381L95.5681 21.7363H91.3936L94.7844 7.67659Z" fill="#4D4D4D"/>
</svg>

<svg width="106" height="23" fill="none" xmlns="http://www.w3.org/2000/svg"><path d="M21.8 13.744c-1.479 5.928-7.483 9.537-13.412 8.058C2.46 20.324-1.147 14.319.33 8.391 1.81 2.46 7.814-1.147 13.741.33 19.67 1.81 23.278 7.815 21.8 13.744Z" fill="#F7931A"/><path d="M15.946 9.489c.22-1.473-.9-2.264-2.434-2.793l.498-1.994-1.215-.303-.484 1.942c-.319-.08-.647-.154-.973-.229l.488-1.955-1.213-.302-.498 1.994c-.264-.06-.524-.12-.775-.182V5.66l-1.674-.418-.323 1.297s.901.207.882.22c.492.122.58.448.566.706l-.566 2.272c.033.009.077.021.126.04l-.128-.031-.795 3.183c-.06.15-.212.373-.556.288.012.018-.882-.22-.882-.22l-.603 1.39 1.58.394c.294.074.582.15.865.223l-.502 2.018 1.213.303.497-1.997c.332.09.653.173.968.251l-.496 1.987 1.214.303.503-2.014c2.07.392 3.627.234 4.283-1.639.528-1.508-.027-2.377-1.116-2.945.793-.183 1.39-.704 1.55-1.782Zm-2.774 3.89c-.375 1.508-2.914.693-3.737.488l.667-2.673c.823.206 3.462.612 3.07 2.185Zm.376-3.912c-.343 1.371-2.456.675-3.141.504l.604-2.425c.686.171 2.893.49 2.537 1.92Z" fill="#fff"/><path d="M32.431 6.695c.898 0 1.673.16 2.324.476a4.68 4.68 0 0 1 1.629 1.289c.427.543.745 1.177.95 1.905.205.729.307 1.513.307 2.352 0 1.29-.236 2.508-.713 3.656a9.482 9.482 0 0 1-1.947 2.998 9.157 9.157 0 0 1-2.913 2.014c-1.118.495-2.334.743-3.64.743-.168 0-.465-.005-.884-.013-.419-.01-.9-.052-1.44-.125a16.913 16.913 0 0 1-1.723-.338 8.635 8.635 0 0 1-1.724-.616L27.503.675l4.34-.673-1.735 7.226a6.75 6.75 0 0 1 1.12-.392 4.972 4.972 0 0 1 1.203-.141Zm-3.64 11.99c.653 0 1.27-.16 1.848-.477a4.865 4.865 0 0 0 1.5-1.274c.42-.534.752-1.135.994-1.807a6.159 6.159 0 0 0 .364-2.103c0-.896-.15-1.594-.448-2.1-.298-.503-.85-.756-1.653-.756-.262 0-.601.05-1.02.14a2.55 2.55 0 0 0-1.137.59l-1.847 7.672c.111.02.21.039.294.056.082.02.173.033.264.042.095.011.205.017.337.017h.504ZM42.142 21.738h-4.145l3.5-14.731h4.175l-3.53 14.731ZM44.16 5.212a2.572 2.572 0 0 1-1.569-.517c-.47-.344-.702-.872-.702-1.583 0-.392.08-.76.238-1.106a2.959 2.959 0 0 1 1.54-1.5 2.778 2.778 0 0 1 1.109-.222c.578 0 1.1.172 1.567.517.465.347.7.875.7 1.583 0 .393-.08.762-.239 1.107a2.914 2.914 0 0 1-.63.897c-.259.252-.565.451-.909.601a2.73 2.73 0 0 1-1.105.223ZM49.305 3.337l4.342-.673-1.066 4.342h4.65l-.84 3.416H51.77l-1.23 5.153a5.83 5.83 0 0 0-.197 1.204c-.02.374.027.696.14.967.11.271.311.48.602.628.289.15.703.227 1.246.227.447 0 .883-.043 1.304-.127a9.236 9.236 0 0 0 1.272-.35l.31 3.194c-.56.205-1.167.382-1.82.53-.656.152-1.43.224-2.326.224-1.288 0-2.287-.191-2.998-.572-.71-.383-1.212-.907-1.513-1.57-.296-.661-.429-1.423-.392-2.282.039-.86.168-1.764.392-2.717l2.746-11.594ZM57.048 15.856c0-1.27.205-2.466.616-3.586a8.82 8.82 0 0 1 1.766-2.943 8.27 8.27 0 0 1 2.788-1.987c1.089-.485 2.309-.729 3.653-.729.841 0 1.593.08 2.254.24.664.16 1.265.368 1.808.629l-1.43 3.25a13.367 13.367 0 0 0-1.162-.406c-.4-.123-.89-.183-1.47-.183-1.383 0-2.477.477-3.291 1.428-.811.951-1.22 2.232-1.22 3.838 0 .953.206 1.722.618 2.311.41.59 1.168.882 2.268.882.543 0 1.067-.057 1.569-.167a7.72 7.72 0 0 0 1.345-.42l.31 3.332c-.525.204-1.103.387-1.737.548-.636.155-1.393.236-2.27.236-1.158 0-2.139-.17-2.94-.503-.803-.34-1.466-.79-1.988-1.359a5.12 5.12 0 0 1-1.135-2.004 8.22 8.22 0 0 1-.352-2.407ZM75.463 22.129c-.99 0-1.849-.15-2.578-.45-.727-.298-1.329-.716-1.805-1.26a5.445 5.445 0 0 1-1.078-1.918c-.245-.737-.362-1.553-.362-2.448 0-1.122.18-2.244.544-3.363a9.52 9.52 0 0 1 1.612-3.024 8.607 8.607 0 0 1 2.603-2.201c1.025-.568 2.203-.854 3.527-.854.971 0 1.826.151 2.565.45.736.298 1.342.72 1.82 1.26.475.543.835 1.18 1.077 1.919.244.736.364 1.554.364 2.45 0 1.119-.178 2.24-.53 3.363a9.71 9.71 0 0 1-1.57 3.024 8.223 8.223 0 0 1-2.59 2.197c-1.035.57-2.236.855-3.599.855Zm2.072-11.987a2.62 2.62 0 0 0-1.623.53c-.467.357-.86.805-1.175 1.346a6.643 6.643 0 0 0-.717 1.778 7.664 7.664 0 0 0-.236 1.835c0 .934.15 1.662.447 2.186.3.521.84.783 1.625.783.617 0 1.157-.177 1.625-.533a4.598 4.598 0 0 0 1.175-1.344c.318-.54.557-1.134.717-1.778a7.773 7.773 0 0 0 .236-1.835c0-.932-.15-1.662-.449-2.185-.299-.521-.841-.783-1.625-.783ZM88.268 21.738H84.12L87.62 7.007h4.176l-3.528 14.731Zm2.014-16.526a2.567 2.567 0 0 1-1.567-.517c-.467-.344-.702-.872-.702-1.583 0-.392.081-.76.24-1.106.157-.345.368-.643.63-.896.26-.251.566-.452.91-.603a2.758 2.758 0 0 1 1.105-.223c.58 0 1.103.172 1.57.517.466.347.701.875.701 1.583 0 .393-.084.762-.24 1.107a2.906 2.906 0 0 1-.629.897 3.076 3.076 0 0 1-.91.601 2.74 2.74 0 0 1-1.108.223ZM94.784 7.677c.315-.092.666-.203 1.049-.323a15.451 15.451 0 0 1 2.886-.587 17.94 17.94 0 0 1 2.001-.1c2.186 0 3.693.637 4.525 1.906.831 1.27.975 3.007.436 5.21l-1.907 7.954h-4.173l1.848-7.787c.113-.486.202-.956.267-1.415.066-.456.062-.857-.015-1.204a1.44 1.44 0 0 0-.517-.841c-.273-.215-.686-.322-1.247-.322-.54 0-1.09.058-1.652.17l-2.717 11.398h-4.174l3.39-14.06Z" fill="#4D4D4D"/></svg>
